svg/user/group_2_line.svg

<svg xmlns="http://www.w3.org/2000/svg" width="24" height="24" viewBox="0 0 24 24"><g fill="none" fill-rule="evenodd"><path d="M24,0 L24,24 L0,24 L0,0 L24,0 Z M12.5935,23.2578 L12.5819,23.2595 L12.5109,23.295 L12.4919,23.2987 L12.4767,23.295 L12.4057,23.2595 C12.3958,23.2564 12.387,23.259 12.3821,23.2649 L12.378,23.2758 L12.3609,23.7031 L12.3659,23.7235 L12.3769,23.7357 L12.4805,23.8097 L12.4953,23.8136 L12.5071,23.8097 L12.6107,23.7357 L12.6233,23.7197 L12.6267,23.7031 L12.6096,23.2758 C12.6076,23.2657 12.601,23.2593 12.5935,23.2578 Z M12.8584,23.1453 L12.8445,23.1473 L12.6598,23.2397 L12.6499,23.2499 L12.6472,23.2611 L12.6651,23.6906 L12.6699,23.7034 L12.6784,23.7105 L12.8793,23.8032 C12.8914,23.8069 12.9022,23.803 12.9078,23.7952 L12.9118,23.7812 L12.8777,23.1665 C12.8753,23.1546 12.8674,23.147 12.8584,23.1453 Z M12.143,23.1473 C12.1332,23.1424 12.1222,23.1453 12.1156,23.1526 L12.1099,23.1665 L12.0758,23.7812 C12.0751,23.7927 12.0828,23.8019 12.0926,23.8046 L12.1083,23.8032 L12.3092,23.7105 L12.3186,23.7024 L12.3225,23.6906 L12.3404,23.2611 L12.3372,23.2485 L12.3278,23.2397 L12.143,23.1473 Z"/><path fill="#09244B" d="M5,7.5 C5,5.01472 7.01472,3 9.5,3 C11.9853,3 14,5.01472 14,7.5 C14,9.98528 11.9853,12 9.5,12 C7.01472,12 5,9.98528 5,7.5 Z M9.5,5 C8.11929,5 7,6.11929 7,7.5 C7,8.88071 8.11929,10 9.5,10 C10.8807,10 12,8.88071 12,7.5 C12,6.11929 10.8807,5 9.5,5 Z M9.5,13 C11.4926,13 13.3047,13.6085 14.6375,14.4664 C15.3039,14.8954 15.8754,15.4028 16.2897,15.9561 C16.6974,16.5007 17,17.1553 17,17.8571 C17,18.6116 16.6508,19.2176 16.1355,19.6541 C15.6508,20.0645 15.0194,20.3303 14.3653,20.513 C13.053,20.8796 11.3161,21 9.5,21 C7.68387,21 5.94698,20.8796 4.63474,20.513 C3.98063,20.3303 3.34916,20.0645 2.86453,19.6541 C2.34916,19.2176 2,18.6116 2,17.8571 C2,17.1553 2.30258,16.5007 2.71033,15.9561 C3.12464,15.4028 3.69613,14.8954 4.36254,14.4664 C5.69533,13.6085 7.50739,13 9.5,13 Z M9.5,15 C7.90276,15 6.46482,15.4917 5.44507,16.1481 C4.93522,16.4763 4.5548,16.8296 4.31127,17.1549 C4.06119,17.4888 4,17.7306 4,17.8571 C4,17.9311 4.01461,18.0072 4.15707,18.1278 C4.33028,18.2745 4.65071,18.4409 5.17287,18.5868 C6.21317,18.8774 7.72628,19 9.5,19 C11.2737,19 12.7868,18.8774 13.8271,18.5868 C14.3493,18.4409 14.6697,18.2745 14.8429,18.1278 C14.9854,18.0072 15,17.9311 15,17.8571 C15,17.7306 14.9388,17.4888 14.6887,17.1549 C14.4452,16.8296 14.0648,16.4763 13.5549,16.1481 C12.5352,15.4917 11.0972,15 9.5,15 Z M18,13 C19.3206,13 20.5185,13.4362 21.4004,14.0513 C22.222,14.6241 23,15.5285 23,16.5714 C23,17.1577 22.7474,17.6437 22.3617,17.9975 C22.0048,18.3249 21.5531,18.5254 21.1181,18.6571 C20.2487,18.9202 19.128,19 18,19 L17.7968,18.9991 L17.7968,18.9991 C17.9263,18.6523 18,18.2707 18,17.8571 C18,17.63345 17.9783437,17.4163813 17.93925,17.2067797 L17.8945,16.9997 L18,17 C19.0811,17 19.9605,16.9178 20.5388,16.7428 C20.8015,16.6633 20.9362,16.5836 20.9945,16.5367 C20.9652,16.4191 20.8088,16.0769 20.2564,15.6918 C19.6907,15.2972 18.8885,15 18,15 C17.622,15 17.2597,15.0538 16.9246,15.146 C16.4621,14.584 15.8816,14.0859 15.241,13.666 C16.0271,13.2619 16.9767,13 18,13 Z M15,9 C15,7.34315 16.3431,6 18,6 C19.6569,6 21,7.34315 21,9 C21,10.6569 19.6569,12 18,12 C16.3431,12 15,10.6569 15,9 Z M18,8 C17.4477,8 17,8.44772 17,9 C17,9.55228 17.4477,10 18,10 C18.5523,10 19,9.55228 19,9 C19,8.44772 18.5523,8 18,8 Z"/></g></svg>

<svg xmlns="http://www.w3.org/2000/svg" width="24" height="24"><g fill="none" fill-rule="evenodd"><path d="M24 0v24H0V0zM12.594 23.258l-.012.002-.071.035-.02.004-.014-.004-.071-.036c-.01-.003-.019 0-.024.006l-.004.01-.017.428.005.02.01.013.104.074.015.004.012-.004.104-.074.012-.016.004-.017-.017-.427c-.002-.01-.009-.017-.016-.018m.264-.113-.014.002-.184.093-.01.01-.003.011.018.43.005.012.008.008.201.092c.012.004.023 0 .029-.008l.004-.014-.034-.614c-.003-.012-.01-.02-.02-.022m-.715.002a.023.023 0 0 0-.027.006l-.006.014-.034.614c0 .012.007.02.017.024l.015-.002.201-.093.01-.008.003-.011.018-.43-.003-.012-.01-.01z"/><path fill="#09244B" d="M5 7.5a4.5 4.5 0 1 1 9 0 4.5 4.5 0 0 1-9 0M9.5 5a2.5 2.5 0 1 0 0 5 2.5 2.5 0 0 0 0-5m0 8c1.993 0 3.805.608 5.137 1.466.667.43 1.238.937 1.653 1.49.407.545.71 1.2.71 1.901 0 .755-.35 1.36-.864 1.797-.485.41-1.117.676-1.77.859-1.313.367-3.05.487-4.866.487-1.816 0-3.553-.12-4.865-.487-.654-.183-1.286-.449-1.77-.859C2.349 19.218 2 18.612 2 17.857c0-.702.303-1.356.71-1.9.415-.554.986-1.062 1.653-1.49C5.695 13.607 7.507 13 9.5 13m0 2c-1.597 0-3.035.492-4.055 1.148-.51.328-.89.682-1.134 1.007-.25.334-.311.576-.311.702 0 .074.015.15.157.27.173.148.494.314 1.016.46 1.04.29 2.553.413 4.327.413s3.287-.123 4.327-.413c.522-.146.843-.312 1.016-.46.142-.12.157-.196.157-.27 0-.126-.061-.368-.311-.702-.244-.325-.624-.679-1.134-1.007C12.535 15.492 11.097 15 9.5 15m8.5-2c1.32 0 2.518.436 3.4 1.051.822.573 1.6 1.477 1.6 2.52 0 .587-.253 1.073-.638 1.426-.357.328-.809.528-1.244.66-.87.263-1.99.343-3.118.343h-.203c.13-.348.203-.73.203-1.143 0-.224-.022-.44-.06-.65L17.893 17H18c1.081 0 1.96-.082 2.539-.257.262-.08.397-.16.455-.206-.029-.118-.185-.46-.738-.845a4.009 4.009 0 0 0-3.331-.546 7.508 7.508 0 0 0-1.684-1.48A6.064 6.064 0 0 1 18 13m-3-4a3 3 0 1 1 6 0 3 3 0 0 1-6 0m3-1a1 1 0 1 0 0 2 1 1 0 0 0 0-2"/></g></svg>
